src/images/icons/download.svg

<svg xmlns="http://www.w3.org/2000/svg" width="16" height="16" fill="none"><path fill="#00112C" d="M8.75 1.25V9.18957L11.0001 6.93945L12.0608 8.00011L8.00011 12.0608L3.93945 8.00011L5.00011 6.93945L7.25 9.18934V1.25H8.75Z"/><path fill="#00112C" d="M2.75 12.5V10.25H1.25V12.5C1.25 13.0967 1.48705 13.669 1.90901 14.091C2.33097 14.5129 2.90326 14.75 3.5 14.75H12.5C13.0967 14.75 13.669 14.5129 14.091 14.091C14.5129 13.669 14.75 13.0967 14.75 12.5V10.25H13.25V12.5C13.25 12.6989 13.171 12.8897 13.0303 13.0303C12.8897 13.171 12.6989 13.25 12.5 13.25H3.5C3.30109 13.25 3.11032 13.171 2.96967 13.0303C2.82902 12.8897 2.75 12.6989 2.75 12.5Z"/></svg>

<svg xmlns="http://www.w3.org/2000/svg" fill="none" viewBox="0 0 16 16"><path fill="currentColor" d="M8.75 1.25v7.94L11 6.94 12.06 8 8 12.06 3.94 8 5 6.94l2.25 2.25V1.25z"/><path fill="currentColor" d="M2.75 12.5v-2.25h-1.5v2.25a2.25 2.25 0 0 0 2.25 2.25h9a2.25 2.25 0 0 0 2.25-2.25v-2.25h-1.5v2.25a.75.75 0 0 1-.75.75h-9a.75.75 0 0 1-.75-.75"/></svg>
